svg/u1f933.svg

<svg viewBox="0 0 128 128" xmlns="http://www.w3.org/2000/svg">
  <linearGradient id="d" gradientUnits="userSpaceOnUse" x1="56.3" x2="56.3" y1="76.893" y2="118.9">
    <stop offset="0" stop-color="#64B5F6"/>
    <stop offset="1" stop-color="#2196F3"/>
  </linearGradient>
  <path d="m74.18 123.88c-7.44 0-70.38 0.05-70.38 0.05l0.08-49.86 37.47 16.84c5.04 1.87 10.65 1.34 15.25-1.44l33.6-20.93 18.6 9.38s-26.81 45.96-34.62 45.96z" fill="url(#d)"/>
  <g opacity=".2">
    <path d="m90.27 71.97 14.44 7.07c-2.38 3.97-7.07 11.65-12.22 19.38-13.59 20.4-17.81 22.29-18.41 22.46-6.8 0-54.73 0.04-67.29 0.05l0.07-42.23 33.25 14.94c0.06 0.03 0.12 0.05 0.19 0.08 2.3 0.85 4.72 1.29 7.18 1.29 3.76 0 7.45-1.03 10.71-2.99l32.08-20.05m-0.18-3.43-33.5 20.93c-2.79 1.68-5.94 2.54-9.12 2.54-2.07 0-4.15-0.36-6.13-1.1l-37.47-16.84-0.07 49.86s62.94-0.05 70.38-0.05c7.81 0 34.78-46.11 34.78-46.11l-18.87-9.23z" fill="#424242"/>
  </g>
  <linearGradient id="c" gradientUnits="userSpaceOnUse" x1="100.21" x2="104.83" y1="36.074" y2="74.856">
    <stop offset=".1982" stop-color="#FFCA28"/>
    <stop offset=".8945" stop-color="#FFB300"/>
  </linearGradient>
  <path d="m106.31 79.51c-0.42 0-0.78-0.1-1.11-0.3-0.06-0.04-0.13-0.07-0.2-0.09s-7-2.39-12.94-6.03c-9.92-6.08-8.33-14.65-7.16-20.91 0.19-1 0.36-1.94 0.47-2.79 0.3-2.34-0.61-5.42-1.57-8.67-1.16-3.95-2.48-8.42-0.76-9.88 0.92-0.79 1.95-1.18 3.05-1.18 2.58 0 4.99 2.13 5.62 3.32 0.87 1.66 2.9 6.95 1.84 11.49-0.12 0.5-0.26 1.04-0.4 1.61-1.05 4.05-2.48 9.6 1.6 12.25 2.09 1.36 5.37 1.99 10.3 1.99 1.42 0 2.79-0.05 4-0.09 0.95-0.03 1.8-0.06 2.5-0.06 4.63 0 8.67 0.3 10.67 0.47-1.65 3.76-7.03 15.06-13.67 18.23-0.89 0.43-1.63 0.64-2.24 0.64z" fill="url(#c)"/>
  <path d="m86.1 30.65c2.11 0 4.23 1.84 4.73 2.79 0.82 1.56 2.74 6.55 1.75 10.8-0.12 0.5-0.25 1.03-0.4 1.58-1.06 4.1-2.66 10.3 2.02 13.34 2.26 1.47 5.71 2.15 10.85 2.15 1.44 0 2.82-0.05 4.03-0.09 0.96-0.03 1.79-0.06 2.47-0.06 3.69 0 7 0.19 9.19 0.36-2.4 5.2-7.29 13.9-12.62 16.44-0.75 0.36-1.36 0.54-1.82 0.54-0.24 0-0.42-0.05-0.59-0.15-0.12-0.08-0.26-0.14-0.39-0.18-0.07-0.02-6.88-2.35-12.74-5.94-9.34-5.72-7.87-13.57-6.7-19.87 0.19-1.01 0.37-1.97 0.48-2.84 0.33-2.55-0.61-5.72-1.6-9.08-0.91-3.1-2.3-7.79-1.07-8.84 0.75-0.64 1.54-0.95 2.41-0.95m0-2c-1.23 0-2.5 0.4-3.7 1.42-3.74 3.19 2.65 13.96 1.98 19.19-0.76 5.94-5.03 17.21 7.16 24.67 6.11 3.74 13.14 6.13 13.14 6.13 0.52 0.31 1.07 0.44 1.63 0.44 0.9 0 1.82-0.32 2.68-0.74 8.42-4.02 14.69-20 14.69-20s-5.4-0.61-12.12-0.61c-1.61 0-3.98 0.16-6.5 0.16-3.57 0-7.42-0.31-9.76-1.83-3.99-2.59-1.69-8.83-0.77-12.79 1.08-4.66-0.81-10.06-1.93-12.18-0.79-1.5-3.51-3.86-6.5-3.86z" fill="#EDA600"/>
  <path d="m120.22 63.99-30.42-0.12v-56.88c0-1.59 1.21-2.88 2.7-2.88h25.02c1.49 0 2.7 1.29 2.7 2.88v57z" fill="#9E9E9E"/>
  <path d="M116,63.99l-26.19-0.12V6.99c0-1.59,1.21-2.88,2.7-2.88H116V63.99z" fill="#eee"/>
  <linearGradient id="b" gradientUnits="userSpaceOnUse" x1="103.74" x2="103.74" y1="53.117" y2="10.529">
    <stop offset="0" stop-color="#2196F3"/>
    <stop offset="1" stop-color="#64B5F6"/>
  </linearGradient>
  <polygon fill="url(#b)" points="112.11 53.12 95.36 53.03 95.36 10.53 112.11 10.53"/>
  <g opacity=".2">
    <path d="m115.98 6.02 1.5-0.02h0.06c0.35 0 0.75 0.42 0.75 0.92l-0.13 55.04-2.4 0.03h-0.01c-0.08 0-0.03-0.01-0.11 0l-23.64-0.11v-54.89c0-0.48 0.17-0.9 0.55-0.9l23.43-0.07m0.02-1.95-23.45 0.05c-1.49 0-2.55 1.28-2.55 2.87v56.89l26 0.12v-0.02l4.27 0.02 0.07-57c0-1.59-1.29-2.87-2.78-2.87l-1.56-0.06z" fill="#424242"/>
  </g>
  <radialGradient id="a" cx="104.7" cy="37.953" gradientUnits="userSpaceOnUse" r="20.394">
    <stop offset=".5993" stop-color="#FFCA28"/>
    <stop offset="1" stop-color="#FFB300"/>
  </radialGradient>
  <path d="m114.25 64.45c-1.9 0-3.54-1.47-3.81-3.42-0.15-1.07 0.11-2.13 0.75-2.99 0.19-0.26 0.25-0.6 0.14-0.91-0.1-0.31-0.35-0.55-0.66-0.64-1.43-0.43-2.51-1.74-2.75-3.34-0.27-1.81 0.61-3.58 2.13-4.31 0.39-0.19 0.62-0.61 0.56-1.04s-0.4-0.77-0.83-0.85c-1.73-0.29-2.96-2.09-2.79-4.1 0.15-1.8 1.35-3.28 2.91-3.6 0.38-0.08 0.68-0.36 0.77-0.73s-0.03-0.77-0.33-1.01c-1.13-0.94-1.64-2.33-1.36-3.71 0.37-1.83 2.05-3.16 3.99-3.16 0.27 0 0.55 0.03 0.82 0.08l6.1 1.18c1.1 0.21 2.05 0.83 2.66 1.74 0.57 0.86 0.78 1.88 0.58 2.87-0.24 1.17-0.95 1.91-1.51 2.32-0.26 0.19-0.41 0.5-0.4 0.82 0 0.32 0.16 0.62 0.42 0.81 1.08 0.76 1.68 2.14 1.56 3.6-0.09 1.09-0.57 2.08-1.34 2.79-0.2 0.19-0.32 0.45-0.33 0.72 0 0.28 0.11 0.54 0.3 0.73 0.68 0.66 1.11 1.5 1.25 2.43 0.25 1.66-0.43 3.27-1.74 4.11-0.28 0.18-0.45 0.48-0.46 0.81s0.14 0.64 0.41 0.84c0.88 0.64 1.45 1.59 1.6 2.68 0.31 2.18-1.15 4.21-3.26 4.53l-4.83 0.72c-0.18 0.01-0.37 0.03-0.55 0.03z" fill="url(#a)"/>
  <path d="m112.97 31.63c0.21 0 0.42 0.02 0.63 0.06l6.1 1.18c0.84 0.16 1.56 0.63 2.02 1.32 0.42 0.63 0.58 1.39 0.43 2.12-0.17 0.86-0.71 1.41-1.13 1.72-0.52 0.38-0.82 0.99-0.81 1.63s0.32 1.24 0.85 1.61c0.79 0.56 1.23 1.59 1.14 2.7-0.07 0.84-0.43 1.6-1.02 2.13-0.41 0.37-0.64 0.9-0.65 1.45s0.21 1.08 0.61 1.47c0.36 0.35 0.82 0.96 0.96 1.86 0.19 1.25-0.33 2.5-1.29 3.13-0.55 0.36-0.89 0.96-0.91 1.62s0.29 1.28 0.82 1.67c0.66 0.48 1.08 1.2 1.2 2.01 0.23 1.64-0.85 3.16-2.42 3.4l-4.83 0.72c-0.13 0.02-0.27 0.03-0.41 0.03-1.4 0-2.62-1.1-2.82-2.56-0.11-0.81 0.08-1.61 0.56-2.26 0.38-0.52 0.49-1.2 0.28-1.82s-0.7-1.09-1.32-1.28c-1.06-0.32-1.87-1.31-2.05-2.53-0.21-1.38 0.44-2.72 1.58-3.26 0.79-0.38 1.24-1.22 1.12-2.08s-0.79-1.55-1.65-1.69c-1.22-0.2-2.08-1.54-1.95-3.03 0.11-1.34 1-2.48 2.11-2.7 0.75-0.15 1.35-0.72 1.54-1.47s-0.07-1.53-0.66-2.02c-0.84-0.7-1.23-1.73-1.02-2.74 0.26-1.4 1.52-2.39 2.99-2.39m0-2c-2.38 0-4.5 1.62-4.97 3.96-0.37 1.8 0.35 3.55 1.7 4.68-1.94 0.4-3.51 2.2-3.71 4.5-0.22 2.58 1.38 4.8 3.62 5.17-1.88 0.9-3.04 3.05-2.69 5.36 0.31 2.05 1.71 3.63 3.45 4.15-0.75 1.03-1.12 2.35-0.93 3.72 0.35 2.49 2.43 4.28 4.8 4.28 0.23 0 0.46-0.02 0.7-0.05l4.83-0.72c2.65-0.39 4.49-2.93 4.1-5.66-0.2-1.41-0.96-2.58-2-3.35 1.58-1.02 2.5-3 2.18-5.1-0.18-1.21-0.76-2.24-1.55-3 0.91-0.83 1.54-2.05 1.66-3.44 0.16-1.88-0.66-3.57-1.98-4.5 0.94-0.7 1.65-1.71 1.9-2.92 0.54-2.67-1.26-5.26-4.02-5.8l-6.1-1.18c-0.32-0.07-0.66-0.1-0.99-0.1z" fill="#EDA600"/>
  <path d="m111.74 40.13c2.88 0.13 5.65 0.54 8.48 1.08 1.89 0.36 2.69-2.53 0.8-2.89-3.08-0.6-6.14-1.05-9.27-1.19-1.94-0.08-1.94 2.92-0.01 3z" fill="#EDA600"/>
  <path d="m111.12 49.05c3.34 0.15 6.71-0.12 10.02 0.45 1.89 0.32 2.7-2.57 0.8-2.89-3.59-0.62-7.19-0.39-10.82-0.55-1.93-0.1-1.92 2.9 0 2.99z" fill="#EDA600"/>
  <path d="m111.86 58.56c2.92-0.52 5.78-1.05 8.75-1.08 1.93-0.02 1.93-3.02 0-3-3.24 0.03-6.37 0.62-9.55 1.19-1.89 0.34-1.09 3.23 0.8 2.89z" fill="#EDA600"/>
</svg>

<svg viewBox="0 0 128 128" xmlns="http://www.w3.org/2000/svg">
  <defs>
    <linearGradient id="d" gradientUnits="userSpaceOnUse" x1="56.3" x2="56.3" y1="76.893" y2="118.9">
      <stop offset="0" stop-color="#64B5F6"/>
      <stop offset="1" stop-color="#2196F3"/>
    </linearGradient>
    <linearGradient id="c" gradientUnits="userSpaceOnUse" x1="100.21" x2="104.83" y1="36.074" y2="74.856">
      <stop offset=".1982" stop-color="#FFCA28"/>
      <stop offset=".8945" stop-color="#FFB300"/>
    </linearGradient>
    <linearGradient id="b" gradientUnits="userSpaceOnUse" x1="103.74" x2="103.74" y1="53.117" y2="10.529">
      <stop offset="0" stop-color="#2196F3"/>
      <stop offset="1" stop-color="#64B5F6"/>
    </linearGradient>
    <radialGradient id="a" cx="104.7" cy="37.953" gradientUnits="userSpaceOnUse" r="20.394">
      <stop offset=".5993" stop-color="#FFCA28"/>
      <stop offset="1" stop-color="#FFB300"/>
    </radialGradient>
  </defs>
  <path d="M74.18,123.88 C66.74,123.88 3.8,123.93 3.8,123.93 L3.88,74.07 L41.35,90.91 C46.39,92.78 52,92.25 56.6,89.47 L90.2,68.54 L108.8,77.92 C108.8,77.92 81.99,123.88 74.18,123.88 Z" fill="url(#d)"/>
  <path d="M90.27,71.97 L104.71,79.04 C102.33,83.01 97.64,90.69 92.49,98.42 C78.9,118.82 74.68,120.71 74.08,120.88 C67.28,120.88 19.35,120.92 6.79,120.93 L6.86,78.7 L40.11,93.64 C40.17,93.67 40.23,93.69 40.3,93.72 C42.6,94.57 45.02,95.01 47.48,95.01 C51.24,95.01 54.93,93.98 58.19,92.02 L90.27,71.97 M90.09,68.54 L56.59,89.47 C53.8,91.15 50.65,92.01 47.47,92.01 C45.4,92.01 43.32,91.65 41.34,90.91 L3.87,74.07 L3.8,123.93 C3.8,123.93 66.74,123.88 74.18,123.88 C81.99,123.88 108.96,77.77 108.96,77.77 L90.09,68.54 Z" fill="#424242" opacity="0.2"/>
  <path d="M106.31,79.51 C105.89,79.51 105.53,79.41 105.2,79.21 C105.14,79.17 105.07,79.14 105,79.12 C104.93,79.1 98,76.73 92.06,73.09 C82.14,67.01 83.73,58.44 84.9,52.18 C85.09,51.18 85.26,50.24 85.37,49.39 C85.67,47.05 84.76,43.97 83.8,40.72 C82.64,36.77 81.32,32.3 83.04,30.84 C83.96,30.05 84.99,29.66 86.09,29.66 C88.67,29.66 91.08,31.79 91.71,32.98 C92.58,34.64 94.61,39.93 93.55,44.47 C93.43,44.97 93.29,45.51 93.15,46.08 C92.1,50.13 90.67,55.68 94.75,58.33 C96.84,59.69 100.12,60.32 105.05,60.32 C106.47,60.32 107.84,60.27 109.05,60.23 C110,60.2 110.85,60.17 111.55,60.17 C116.18,60.17 120.22,60.47 122.22,60.64 C120.57,64.4 115.19,75.7 108.55,78.87 C107.66,79.3 106.92,79.51 106.31,79.51 Z" fill="url(#c)"/>
  <path d="M86.1,30.65 C88.21,30.65 90.33,32.49 90.83,33.44 C91.65,35 93.57,39.99 92.58,44.24 C92.46,44.74 92.33,45.27 92.18,45.82 C91.12,49.92 89.52,56.12 94.2,59.16 C96.46,60.63 99.91,61.31 105.05,61.31 C106.49,61.31 107.87,61.26 109.08,61.22 C110.04,61.19 110.87,61.16 111.55,61.16 C115.24,61.16 118.55,61.35 120.74,61.52 C118.34,66.72 113.45,75.42 108.12,77.96 C107.37,78.32 106.76,78.5 106.3,78.5 C106.06,78.5 105.88,78.45 105.71,78.35 C105.59,78.27 105.45,78.21 105.32,78.17 C105.25,78.15 98.44,75.82 92.58,72.23 C83.24,66.51 84.71,58.66 85.88,52.36 C86.07,51.35 86.25,50.39 86.36,49.52 C86.69,46.97 85.75,43.8 84.76,40.44 C83.85,37.34 82.46,32.65 83.69,31.6 C84.44,30.96 85.23,30.65 86.1,30.65 M86.1,28.65 C84.87,28.65 83.6,29.05 82.4,30.07 C78.66,33.26 85.05,44.03 84.38,49.26 C83.62,55.2 79.35,66.47 91.54,73.93 C97.65,77.67 104.68,80.06 104.68,80.06 C105.2,80.37 105.75,80.5 106.31,80.5 C107.21,80.5 108.13,80.18 108.99,79.76 C117.41,75.74 123.68,59.76 123.68,59.76 C123.68,59.76 118.28,59.15 111.56,59.15 C109.95,59.15 107.58,59.31 105.06,59.31 C101.49,59.31 97.64,59 95.3,57.48 C91.31,54.89 93.61,48.65 94.53,44.69 C95.61,40.03 93.72,34.63 92.6,32.51 C91.81,31.01 89.09,28.65 86.1,28.65 Z" fill="#EDA600"/>
  <path d="M120.22,63.99 L89.8,63.87 L89.8,6.99 C89.8,5.4 91.01,4.11 92.5,4.11 L117.52,4.11 C119.01,4.11 120.22,5.4 120.22,6.99 L120.22,63.99 Z" fill="#9E9E9E"/>
  <path d="M116,63.99 L89.81,63.87 L89.81,6.99 C89.81,5.4 91.02,4.11 92.51,4.11 L116,4.11 L116,63.99 Z" fill="#eee"/>
  <path d="M112.11,53.12 L95.36,53.03 L95.36,10.53 L112.11,10.53 Z" fill="url(#b)"/>
  <path d="M115.98,6.02 L117.48,6 L117.54,6 C117.89,6 118.29,6.42 118.29,6.92 L118.16,61.96 L115.76,61.99 L115.75,61.99 C115.67,61.99 115.72,61.98 115.64,61.99 L92,61.88 L92,6.99 C92,6.51 92.17,6.09 92.55,6.09 L115.98,6.02 M116,4.07 L92.55,4.12 C91.06,4.12 90,5.4 90,6.99 L90,63.88 L116,64 L116,63.98 L120.27,64 L120.34,7 C120.34,5.41 119.05,4.13 117.56,4.13 L116,4.07 Z" fill="#424242" opacity="0.2"/>
  <path d="M114.25,64.45 C112.35,64.45 110.71,62.98 110.44,61.03 C110.29,59.96 110.55,58.9 111.19,58.04 C111.38,57.78 111.44,57.44 111.33,57.13 C111.23,56.82 110.98,56.58 110.67,56.49 C109.24,56.06 108.16,54.75 107.92,53.15 C107.65,51.34 108.53,49.57 110.05,48.84 C110.44,48.65 110.67,48.23 110.61,47.8 C110.55,47.37 110.21,47.03 109.78,46.95 C108.05,46.66 106.82,44.86 106.99,42.85 C107.14,41.05 108.34,39.57 109.9,39.25 C110.28,39.17 110.58,38.89 110.67,38.52 C110.76,38.15 110.64,37.75 110.34,37.51 C109.21,36.57 108.7,35.18 108.98,33.8 C109.35,31.97 111.03,30.64 112.97,30.64 C113.24,30.64 113.52,30.67 113.79,30.72 L119.89,31.9 C120.99,32.11 121.94,32.73 122.55,33.64 C123.12,34.5 123.33,35.52 123.13,36.51 C122.89,37.68 122.18,38.42 121.62,38.83 C121.36,39.02 121.21,39.33 121.22,39.65 C121.22,39.97 121.38,40.27 121.64,40.46 C122.72,41.22 123.32,42.6 123.2,44.06 C123.11,45.15 122.63,46.14 121.86,46.85 C121.66,47.04 121.54,47.3 121.53,47.57 C121.53,47.85 121.64,48.11 121.83,48.3 C122.51,48.96 122.94,49.8 123.08,50.73 C123.33,52.39 122.65,54 121.34,54.84 C121.06,55.02 120.89,55.32 120.88,55.65 C120.87,55.98 121.02,56.29 121.29,56.49 C122.17,57.13 122.74,58.08 122.89,59.17 C123.2,61.35 121.74,63.38 119.63,63.7 L114.8,64.42 C114.62,64.43 114.43,64.45 114.25,64.45 Z" fill="url(#a)"/>
  <path d="M112.97,31.63 C113.18,31.63 113.39,31.65 113.6,31.69 L119.7,32.87 C120.54,33.03 121.26,33.5 121.72,34.19 C122.14,34.82 122.3,35.58 122.15,36.31 C121.98,37.17 121.44,37.72 121.02,38.03 C120.5,38.41 120.2,39.02 120.21,39.66 C120.22,40.3 120.53,40.9 121.06,41.27 C121.85,41.83 122.29,42.86 122.2,43.97 C122.13,44.81 121.77,45.57 121.18,46.1 C120.77,46.47 120.54,47 120.53,47.55 C120.52,48.1 120.74,48.63 121.14,49.02 C121.5,49.37 121.96,49.98 122.1,50.88 C122.29,52.13 121.77,53.38 120.81,54.01 C120.26,54.37 119.92,54.97 119.9,55.63 C119.88,56.29 120.19,56.91 120.72,57.3 C121.38,57.78 121.8,58.5 121.92,59.31 C122.15,60.95 121.07,62.47 119.5,62.71 L114.67,63.43 C114.54,63.45 114.4,63.46 114.26,63.46 C112.86,63.46 111.64,62.36 111.44,60.9 C111.33,60.09 111.52,59.29 112,58.64 C112.38,58.12 112.49,57.44 112.28,56.82 C112.07,56.2 111.58,55.73 110.96,55.54 C109.9,55.22 109.09,54.23 108.91,53.01 C108.7,51.63 109.35,50.29 110.49,49.75 C111.28,49.37 111.73,48.53 111.61,47.67 C111.49,46.81 110.82,46.12 109.96,45.98 C108.74,45.78 107.88,44.44 108.01,42.95 C108.12,41.61 109.01,40.47 110.12,40.25 C110.87,40.1 111.47,39.53 111.66,38.78 C111.85,38.03 111.59,37.25 111,36.76 C110.16,36.06 109.77,35.03 109.98,34.02 C110.24,32.62 111.5,31.63 112.97,31.63 M112.97,29.63 C110.59,29.63 108.47,31.25 108,33.59 C107.63,35.39 108.35,37.14 109.7,38.27 C107.76,38.67 106.19,40.47 105.99,42.77 C105.77,45.35 107.37,47.57 109.61,47.94 C107.73,48.84 106.57,50.99 106.92,53.3 C107.23,55.35 108.63,56.93 110.37,57.45 C109.62,58.48 109.25,59.8 109.44,61.17 C109.79,63.66 111.87,65.45 114.24,65.45 C114.47,65.45 114.7,65.43 114.94,65.4 L119.77,64.68 C122.42,64.29 124.26,61.75 123.87,59.02 C123.67,57.61 122.91,56.44 121.87,55.67 C123.45,54.65 124.37,52.67 124.05,50.57 C123.87,49.36 123.29,48.33 122.5,47.57 C123.41,46.74 124.04,45.52 124.16,44.13 C124.32,42.25 123.5,40.56 122.18,39.63 C123.12,38.93 123.83,37.92 124.08,36.71 C124.62,34.04 122.82,31.45 120.06,30.91 L113.96,29.73 C113.64,29.66 113.3,29.63 112.97,29.63 Z" fill="#EDA600"/>
  <path d="M111.74,40.13 C114.62,40.26 117.39,40.67 120.22,41.21 C122.11,41.57 122.91,38.68 121.02,38.32 C117.94,37.72 114.88,37.27 111.75,37.13 C109.81,37.05 109.81,40.05 111.74,40.13 Z" fill="#EDA600"/>
  <path d="M111.12,49.05 C114.46,49.2 117.83,48.93 121.14,49.5 C123.03,49.82 123.84,46.93 121.94,46.61 C118.35,45.99 114.75,46.22 111.12,46.06 C109.19,45.96 109.2,48.96 111.12,49.05 Z" fill="#EDA600"/>
  <path d="M111.86,58.56 C114.78,58.04 117.64,57.51 120.61,57.48 C122.54,57.46 122.54,54.46 120.61,54.48 C117.37,54.51 114.24,55.1 111.06,55.67 C109.17,56.01 109.97,58.9 111.86,58.56 Z" fill="#EDA600"/>
</svg>
